X: 30
T: No_125_Buzzard_Dance_Song_(a).krn
N: Derived from No_125_Buzzard_Dance_Song_(a).krn
%%abc-version 2.0
%%abcx-abcm2ps-target-version 5.9.1 (29 Sep 2008)
%%abc-creator hum2abc beta
%%abcx-conversion-date 2019/03/15 08:38:45
%%humdrum-veritas 245043129
%%humdrum-veritas-data 546724444
%%linebreak <none>
%%barnumbers 0
L: 1/16
M: 3/4
K: Eb clef=bass
[K:clef=bass][M:3/4]E3B,B,7B, [I:setbarnb 2]| 
A,3G,G,4z4 ||  
[M:2/4]E,3G, G,3B, ||  
[M:3/8]A,3G,G,2 ||  
[M:3/4]B,3CB,7B, | 
A,3G,G,4z4 ||  
[M:2/4]E,3G, G,3B, ||  
[M:3/8]A,3G,G,2 :|]  



